logos/heroku-icon.svg

<?xml version="1.0" encoding="UTF-8"?>
<svg width="256px" height="285px" viewBox="0 0 256 285" version="1.1" xmlns="http://www.w3.org/2000/svg" xmlns:xlink="http://www.w3.org/1999/xlink" preserveAspectRatio="xMidYMid">
    <g>
        <path d="M230.4,0 C244.39552,0 255.77047,11.2315104 255.99657,25.1765997 L256,25.6 L256,258.844444 C256,272.839964 244.765005,284.214915 230.823296,284.441014 L230.4,284.444444 L25.6,284.444444 C11.60448,284.444444 0.2295296,273.209449 0.003430144,259.26774 L0,258.844444 L0,25.6 C0,11.60096 11.2349952,0.2294592 25.1767043,0.003429088 L25.6,0 L230.4,0 Z M230.4,14.2222222 L25.6,14.2222222 C19.426,14.2222222 14.3820625,19.169691 14.2259468,25.3068692 L14.2222222,25.6 L14.2222222,258.844444 C14.2222222,265.018444 19.169691,270.062382 25.3068692,270.218498 L25.6,270.222222 L230.4,270.222222 C236.5775,270.222222 241.618047,265.274753 241.774056,259.137575 L241.777778,258.844444 L241.777778,25.6 C241.777778,19.328 236.675556,14.2222222 230.4,14.2222222 Z M64,184.888889 L96,213.333333 L64,241.777778 L64,184.888889 Z M92.4444444,42.6666667 L92.4444444,123.416889 C106.645333,118.794667 126.496,113.777778 145.777778,113.777778 C163.36,113.777778 173.884444,120.689778 179.616,126.488889 C191.7248,138.738489 192.013158,154.309103 191.997015,156.385666 L191.996444,156.444444 L192,241.777778 L163.555556,241.777778 L163.555556,156.835556 C163.416889,150.197333 160.216889,142.222222 145.777778,142.222222 C117.146098,142.222222 85.0644658,156.478539 84.1117507,156.905113 L84.0924444,156.913778 L64,166.016 L64,42.6666667 L92.4444444,42.6666667 Z M192,42.6666667 C190.08,58.8231111 183.530667,74.3111111 170.666667,88.8888889 L170.666667,88.8888889 L142.222222,88.8888889 C153.400889,74.2222222 160.419556,58.7875556 163.555556,42.6666667 L163.555556,42.6666667 Z" fill="#430098"></path>
    </g>
</svg>

<svg width="256" height="285" xmlns="http://www.w3.org/2000/svg" preserveAspectRatio="xMidYMid">
	<path d="M230.4 0c13.996 0 25.37 11.232 25.597 25.177l.003.423v233.244c0 13.996-11.235 25.37-25.177 25.597l-.423.003H25.6c-13.996 0-25.37-11.235-25.597-25.176L0 258.844V25.6C0 11.601 11.235.23 25.177.003L25.6 0h204.8Zm0 14.222H25.6c-6.174 0-11.218 4.948-11.374 11.085l-.004.293v233.244c0 6.174 4.948 11.218 11.085 11.374l.293.004h204.8c6.177 0 11.218-4.947 11.374-11.084l.004-.294V25.6c0-6.272-5.102-11.378-11.378-11.378ZM64 184.89l32 28.444-32 28.445v-56.89ZM92.444 42.667v80.75c14.201-4.622 34.052-9.64 53.334-9.64 17.582 0 28.106 6.913 33.838 12.712 12.109 12.25 12.397 27.82 12.381 29.897v.058l.003 85.334h-28.444v-84.942c-.14-6.639-3.34-14.614-17.778-14.614-28.632 0-60.714 14.257-61.666 14.683l-.02.009L64 166.016V42.666h28.444Zm99.556 0c-1.92 16.156-8.47 31.644-21.333 46.222h-28.445c11.179-14.667 18.198-30.101 21.334-46.222Z" fill="#430098"/>
</svg>
